X: 21477
T: Kevin's Celtic Chasm
R: jig
M: 6/8
K: Dmajor
|:A|dcd ecA|dcd dcd|afd ecA|
[1 fdB GAB|GAB Ace|gfe d2:|
[2 fdB gdB|GAB Ace|gfe d2||
|:A|Aaa Agg|Aff dcB|AGA Bee|
Aaa Agg|Aff fed|cde d2:|

